**harm	**harte	**silbe	**silbe	**rhyme	**timestamp	**phrase	**leadinstrument	**kern
*M4/4	*M4/4	*	*	*	*	*	*	*
*	*	*	*	*	*	*	*	*
*	*	*	*	*	*	*	*	*
*B:	*B:	*	*	*	*	*	*	*B:
*	*	*	*	*	*	*	*	*
*	*	*	*	*	*	*	*	*
1r;	N	.	.	.	0	.	r	1r;
=1	=1	=1	=1	=1	=1	=1	=1	=1
*>Letter>A	*>Letter>A	*>Letter>A	*>Letter>A	*>Letter>A	*>Letter>A	*>Letter>A	*>Letter>A	*>Letter>A
*>Label>Intro	*>Label>Intro	*>Label>Intro	*>Label>Intro	*>Label>Intro	*>Label>Intro	*>Label>Intro	*>Label>Intro	*>Label>Intro
1r	N	.	.	.	0.255	newline	r	1r
=2	=2	=2	=2	=2	=2	=2	=2	=2
1r	N	.	.	.	2.702	.	r	1r
=3	=3	=3	=3	=3	=3	=3	=3	=3
1r	N	.	.	.	5.148	.	r	1r
=4	=4	=4	=4	=4	=4	=4	=4	=4
1r	N	.	.	.	7.594	.	r	1r
=5	=5	=5	=5	=5	=5	=5	=5	=5
*>Letter>B2	*>Letter>B2	*>Letter>B2	*>Letter>B2	*>Letter>B2	*>Letter>B2	*>Letter>B2	*>Letter>B2	*>Letter>B2
*>Label>Chorus	*>Label>Chorus	*>Label>Chorus	*>Label>Chorus	*>Label>Chorus	*>Label>Chorus	*>Label>Chorus	*>Label>Chorus	*>Label>Chorus
1r	N	Ce-	Ce-	.	10.041	newline	voice	1r
.	.	-lia	-lia	.	.	.	.	.
.	.	.	.	.	.	.	.	.
.	.	you're	you're	.	.	.	.	.
=6	=6	=6	=6	=6	=6	=6	=6	=6
1r	N	brea-	brea-	(A	12.393	.	voice	1r
.	.	-king	-king	a)	.	.	.	.
.	.	_	_	.	.	.	.	.
.	.	my	my	.	.	.	.	.
.	.	heart	heart	.	.	.	.	.
.	.	_	_	.	.	.	.	.
.	.	.	.	.	.	.	.	.
.	.	You're	You're	.	.	.	.	.
=7	=7	=7	=7	=7	=7	=7	=7	=7
1r	N	sha-	sha-	(A	14.745	.	voice	1r
.	.	-king	-king	a)	.	.	.	.
.	.	my	my	.	.	.	.	.
.	.	con	con	.	.	.	.	.
.	.	_	_	.	.	.	.	.
.	.	fi-	fi-	.	.	.	.	.
.	.	-dence	-dence	.	.	.	.	.
.	.	_	_	.	.	.	.	.
.	.	dai	dai	(A	.	.	.	.
=8	=8	=8	=8	=8	=8	=8	=8	=8
1V	F#:maj	_	_	.	17.097	.	voice	1F# 1a# 1cc#
.	.	ly	ly	a)	.	.	.	.
.	.	_	_	.	.	.	.	.
.	.	_	_	.	.	.	.	.
.	.	_	_	.	.	.	.	.
.	.	.	.	.	.	.	.	.
.	.	Oh,	Oh,	.	.	.	.	.
.	.	Ce-	Ce-	.	.	.	.	.
=9	=9	=9	=9	=9	=9	=9	=9	=9
2IV	E:maj	-ce	-ce	.	19.449	newline	voice	2E 2g# 2b
.	.	_	_	.	.	.	.	.
.	.	_	_	.	.	.	.	.
2I	B:maj	lia	lia	.	20.624	.	voice	2B 2dd# 2ff#
.	.	.	.	.	.	.	.	.
.	.	.	.	.	.	.	.	.
.	.	I'm	I'm	.	.	.	.	.
=10	=10	=10	=10	=10	=10	=10	=10	=10
2IV	E:maj	down	down	.	21.799	.	voice	2E 2g# 2b
.	.	on	on	.	.	.	.	.
.	.	my	my	.	.	.	.	.
.	.	knees	knees	B	.	.	.	.
2I	B:maj	_	_	.	22.974	.	voice	2B 2dd# 2ff#
.	.	.	.	.	.	.	.	.
.	.	I'm	I'm	.	.	.	.	.
=11	=11	=11	=11	=11	=11	=11	=11	=11
2IV	E:maj	beg-	beg-	.	24.149	.	voice	2E 2g# 2b
.	.	-ging	-ging	.	.	.	.	.
.	.	you,	you,	.	.	.	.	.
.	.	please,	please,	B	.	.	.	.
2I	B:maj	_	_	.	25.324	.	voice	2B 2dd# 2ff#
.	.	to	to	.	.	.	.	.
.	.	come	come	.	.	.	.	.
.	.	home	home	.	.	.	.	.
=12	=12	=12	=12	=12	=12	=12	=12	=12
1V	F#:maj	_	_	.	26.498	.	voice	1F# 1a# 1cc#
.	.	.	.	.	.	.	.	.
.	.	.	.	.	.	.	.	.
.	.	Come	.	.	.	.	.	.
.	.	on!	.	.	.	.	.	.
.	.	_	.	.	.	.	.	.
=13	=13	=13	=13	=13	=13	=13	=13	=13
*>Letter>B	*>Letter>B	*>Letter>B	*>Letter>B	*>Letter>B	*>Letter>B	*>Letter>B	*>Letter>B	*>Letter>B
*>Label>Chorus	*>Label>Chorus	*>Label>Chorus	*>Label>Chorus	*>Label>Chorus	*>Label>Chorus	*>Label>Chorus	*>Label>Chorus	*>Label>Chorus
1I	B:maj	Ce-	Ce-	.	28.848	newline	voice	1B 1dd# 1ff#
.	.	-lia	-lia	.	.	.	.	.
.	.	.	.	.	.	.	.	.
.	.	you're	you're	.	.	.	.	.
=14	=14	=14	=14	=14	=14	=14	=14	=14
2IV	E:maj	brea-	brea-	(A	31.209	.	voice	2E 2g# 2b
.	.	-king	-king	a)	.	.	.	.
.	.	_	_	.	.	.	.	.
.	.	my	my	.	.	.	.	.
.	.	heart	heart	.	.	.	.	.
2I	B:maj	_	_	.	32.39	.	voice	2B 2dd# 2ff#
.	.	.	.	.	.	.	.	.
.	.	You're	You're	.	.	.	.	.
=15	=15	=15	=15	=15	=15	=15	=15	=15
2IV	E:maj	sha-	sha-	(A	33.57	.	voice	2E 2g# 2b
.	.	-king	-king	a)	.	.	.	.
.	.	my	my	.	.	.	.	.
.	.	_	_	.	.	.	.	.
.	.	con	con	.	.	.	.	.
2I	B:maj	_	_	.	34.751	.	voice	2B 2dd# 2ff#
.	.	fi-	fi-	.	.	.	.	.
.	.	-dence	-dence	.	.	.	.	.
.	.	_	_	.	.	.	.	.
.	.	dai	dai	(A	.	.	.	.
=16	=16	=16	=16	=16	=16	=16	=16	=16
1V	F#:maj	_	_	.	35.931	.	voice	1F# 1a# 1cc#
.	.	ly	ly	a)	.	.	.	.
.	.	_	_	.	.	.	.	.
.	.	_	_	.	.	.	.	.
.	.	_	_	.	.	.	.	.
.	.	.	.	.	.	.	.	.
.	.	Oh,	Oh,	.	.	.	.	.
.	.	Ce-	Ce-	.	.	.	.	.
=17	=17	=17	=17	=17	=17	=17	=17	=17
2IV	E:maj	-ce	-ce	.	38.292	newline	voice	2E 2g# 2b
.	.	_	_	.	.	.	.	.
.	.	_	_	.	.	.	.	.
2I	B:maj	lia	lia	.	39.453	.	voice	2B 2dd# 2ff#
.	.	.	.	.	.	.	.	.
.	.	.	.	.	.	.	.	.
.	.	I'm	I'm	.	.	.	.	.
=18	=18	=18	=18	=18	=18	=18	=18	=18
2IV	E:maj	down	down	.	40.614	.	voice	2E 2g# 2b
.	.	on	on	.	.	.	.	.
.	.	my	my	.	.	.	.	.
.	.	knees	knees	B	.	.	.	.
2I	B:maj	_	_	.	41.774	.	voice	2B 2dd# 2ff#
.	.	.	.	.	.	.	.	.
.	.	I'm	I'm	.	.	.	.	.
=19	=19	=19	=19	=19	=19	=19	=19	=19
2IV	E:maj	beg-	beg-	.	42.935	.	voice	2E 2g# 2b
.	.	-ging	-ging	.	.	.	.	.
.	.	you,	you,	.	.	.	.	.
.	.	_	_	.	.	.	.	.
.	.	please,	please,	B	.	.	.	.
2I	B:maj	_	_	.	44.096	.	voice	2B 2dd# 2ff#
.	.	to	to	.	.	.	.	.
.	.	come	come	.	.	.	.	.
.	.	home	home	.	.	.	.	.
=20	=20	=20	=20	=20	=20	=20	=20	=20
1V	F#:maj	_	_	.	45.257	.	voice	1F# 1a# 1cc#
.	.	.	.	.	.	.	.	.
.	.	.	.	.	.	.	.	.
.	.	Come	.	.	.	.	.	.
.	.	on	.	.	.	.	.	.
.	.	home	.	.	.	.	.	.
=21	=21	=21	=21	=21	=21	=21	=21	=21
1I	B:maj	_	.	.	47.578	.	voice	1B 1dd# 1ff#
.	.	.	.	.	.	.	.	.
.	.	.	.	.	.	.	.	.
=22	=22	=22	=22	=22	=22	=22	=22	=22
*>Letter>C	*>Letter>C	*>Letter>C	*>Letter>C	*>Letter>C	*>Letter>C	*>Letter>C	*>Letter>C	*>Letter>C
*>Label>Verse	*>Label>Verse	*>Label>Verse	*>Label>Verse	*>Label>Verse	*>Label>Verse	*>Label>Verse	*>Label>Verse	*>Label>Verse
1I	B:maj	.	.	.	49.9	newline	voice	1B 1dd# 1ff#
.	.	Ma-	.	.	.	.	.	.
.	.	-king	.	.	.	.	.	.
.	.	love	.	.	.	.	.	.
.	.	_	.	.	.	.	.	.
.	.	in	.	.	.	.	.	.
.	.	the	.	.	.	.	.	.
.	.	af	.	.	.	.	.	.
=23	=23	=23	=23	=23	=23	=23	=23	=23
1I	B:maj	_	.	.	52.21	.	voice	1B 1dd# 1ff#
.	.	ter-	.	.	.	.	.	.
.	.	-noon	.	C	.	.	.	.
.	.	_	.	.	.	.	.	.
.	.	with	.	.	.	.	.	.
.	.	Ce-	.	.	.	.	.	.
.	.	-ce	.	.	.	.	.	.
=24	=24	=24	=24	=24	=24	=24	=24	=24
1I	B:maj	_	.	.	54.521	.	voice	1B 1dd# 1ff#
.	.	lia	.	.	.	.	.	.
.	.	.	.	.	.	.	.	.
.	.	u-	.	.	.	.	.	.
.	.	-up	.	.	.	.	.	.
.	.	in	.	.	.	.	.	.
.	.	my	.	.	.	.	.	.
=25	=25	=25	=25	=25	=25	=25	=25	=25
2V	F#:maj	_	.	.	56.831	.	voice	2F# 2a# 2cc#
.	.	bed-	.	.	.	.	.	.
.	.	-room	.	C	.	.	.	.
2I	B:maj	_	.	.	57.986	.	voice	2B 2dd# 2ff#
.	.	.	Up	.	.	.	.	.
.	.	.	in	.	.	.	.	.
.	.	.	my	.	.	.	.	.
=26	=26	=26	=26	=26	=26	=26	=26	=26
1I	B:maj	.	_	.	59.142	newline	voice	1B 1dd# 1ff#
.	.	I	bed	.	.	.	.	.
.	.	got	.	.	.	.	.	.
.	.	.	_	.	.	.	.	.
.	.	up	room	.	.	.	.	.
.	.	_	_	.	.	.	.	.
.	.	to	.	.	.	.	.	.
.	.	wash	(vocalizing)	.	.	.	.	.
.	.	.	_	.	.	.	.	.
=27	=27	=27	=27	=27	=27	=27	=27	=27
1I	B:maj	_	_	.	61.463	.	voice	1B 1dd# 1ff#
.	.	my	.	.	.	.	.	.
.	.	.	.	.	.	.	.	.
.	.	face	.	A	.	.	.	.
.	.	_	.	.	.	.	.	.
.	.	.	.	.	.	.	.	.
.	.	when	.	.	.	.	.	.
.	.	I	.	.	.	.	.	.
=28	=28	=28	=28	=28	=28	=28	=28	=28
1I	B:maj	come	.	.	63.785	.	voice	1B 1dd# 1ff#
.	.	back	.	.	.	.	.	.
.	.	to	.	.	.	.	.	.
.	.	bed	.	.	.	.	.	.
.	.	_	.	.	.	.	.	.
.	.	some-	.	.	.	.	.	.
.	.	-one's	.	.	.	.	.	.
.	.	ta	.	(A	.	.	.	.
=29	=29	=29	=29	=29	=29	=29	=29	=29
2V	F#:maj	_	.	.	66.106	.	voice	2F# 2a# 2cc#
.	.	ken	.	a)	.	.	.	.
.	.	my	.	.	.	.	.	.
.	.	place	.	A	.	.	.	.
2I	B:maj	_	.	.	67.267	.	voice	2B 2dd# 2ff#
.	.	.	.	.	.	.	.	.
=30	=30	=30	=30	=30	=30	=30	=30	=30
*>Letter>B	*>Letter>B	*>Letter>B	*>Letter>B	*>Letter>B	*>Letter>B	*>Letter>B	*>Letter>B	*>Letter>B
*>Label>Chorus	*>Label>Chorus	*>Label>Chorus	*>Label>Chorus	*>Label>Chorus	*>Label>Chorus	*>Label>Chorus	*>Label>Chorus	*>Label>Chorus
1I	B:maj	Ce-	Ce-	.	68.428	newline	voice	1B 1dd# 1ff#
.	.	_	_	.	.	.	.	.
.	.	_	_	.	.	.	.	.
.	.	_	_	.	.	.	.	.
.	.	-lia	-lia	.	.	.	.	.
.	.	.	.	.	.	.	.	.
.	.	you're	you're	.	.	.	.	.
=31	=31	=31	=31	=31	=31	=31	=31	=31
2IV	E:maj	brea-	brea-	(A	70.756	.	voice	2E 2g# 2b
.	.	-king	-king	a)	.	.	.	.
.	.	_	_	.	.	.	.	.
.	.	my	my	.	.	.	.	.
.	.	heart	heart	.	.	.	.	.
2I	B:maj	_	_	.	71.919	.	voice	2B 2dd# 2ff#
.	.	.	.	.	.	.	.	.
.	.	You're	You're	.	.	.	.	.
=32	=32	=32	=32	=32	=32	=32	=32	=32
2IV	E:maj	sha-	sha-	(A	73.083	.	voice	2E 2g# 2b
.	.	-king	-king	a)	.	.	.	.
.	.	my	my	.	.	.	.	.
.	.	con	con	.	.	.	.	.
2I	B:maj	_	_	.	74.247	.	voice	2B 2dd# 2ff#
.	.	fi-	fi-	.	.	.	.	.
.	.	-dence	-dence	.	.	.	.	.
.	.	_	_	.	.	.	.	.
.	.	dai	dai	(A	.	.	.	.
=33	=33	=33	=33	=33	=33	=33	=33	=33
1V	F#:maj	_	_	.	75.411	.	voice	1F# 1a# 1cc#
.	.	ly	ly	a)	.	.	.	.
.	.	_	_	.	.	.	.	.
.	.	_	_	.	.	.	.	.
.	.	_	_	.	.	.	.	.
.	.	.	.	.	.	.	.	.
.	.	Oh,	Oh,	.	.	.	.	.
.	.	Ce-	Ce-	.	.	.	.	.
=34	=34	=34	=34	=34	=34	=34	=34	=34
2IV	E:maj	-ce	-ce	.	77.739	newline	voice	2E 2g# 2b
.	.	_	_	.	.	.	.	.
.	.	_	_	.	.	.	.	.
2I	B:maj	lia	lia	.	78.68	.	voice	2B 2dd# 2ff#
.	.	.	.	.	.	.	.	.
.	.	.	.	.	.	.	.	.
.	.	I'm	I'm	.	.	.	.	.
=35	=35	=35	=35	=35	=35	=35	=35	=35
2IV	E:maj	down	down	.	79.62	.	voice	2E 2g# 2b
.	.	on	on	.	.	.	.	.
.	.	my	my	.	.	.	.	.
.	.	knees	knees	B	.	.	.	.
2I	B:maj	_	_	.	80.561	.	voice	2B 2dd# 2ff#
.	.	.	.	.	.	.	.	.
.	.	I'm	I'm	.	.	.	.	.
=36	=36	=36	=36	=36	=36	=36	=36	=36
2IV	E:maj	beg-	beg-	.	81.502	.	voice	2E 2g# 2b
.	.	-ging	-ging	.	.	.	.	.
.	.	you,	you,	.	.	.	.	.
.	.	please,	please,	B	.	.	.	.
2I	B:maj	_	_	.	82.442	.	voice	2B 2dd# 2ff#
.	.	to	to	.	.	.	.	.
.	.	come	come	.	.	.	.	.
.	.	home	home	.	.	.	.	.
=37	=37	=37	=37	=37	=37	=37	=37	=37
1V	F#:maj	_	_	.	83.383	.	voice	1F# 1a# 1cc#
.	.	.	.	.	.	.	.	.
.	.	Come	.	.	.	.	.	.
.	.	on	.	.	.	.	.	.
.	.	home	.	.	.	.	.	.
=38	=38	=38	=38	=38	=38	=38	=38	=38
1I	B:maj	_	.	.	85.264	.	voice	1B 1dd# 1ff#
.	.	.	.	.	.	.	.	.
.	.	.	.	.	.	.	.	.
.	.	Bo	.	.	.	.	.	.
.	.	bo	.	.	.	.	.	.
=39	=39	=39	=39	=39	=39	=39	=39	=39
*>Letter>A2	*>Letter>A2	*>Letter>A2	*>Letter>A2	*>Letter>A2	*>Letter>A2	*>Letter>A2	*>Letter>A2	*>Letter>A2
*>Label>Interlude	*>Label>Interlude	*>Label>Interlude	*>Label>Interlude	*>Label>Interlude	*>Label>Interlude	*>Label>Interlude	*>Label>Interlude	*>Label>Interlude
1r	N	bo	.	.	87.145	newline	voice	1r
.	.	bo	.	.	.	.	.	.
.	.	_	.	.	.	.	.	.
.	.	bo,	.	.	.	.	.	.
.	.	bo	bo	.	.	.	.	.
.	.	bo	bo	.	.	.	.	.
=40	=40	=40	=40	=40	=40	=40	=40	=40
1r	N	bo	bo	.	89.482	.	voice	1r
.	.	bo	bo	.	.	.	.	.
.	.	bo	bo	.	.	.	.	.
.	.	bo	bo	.	.	.	.	.
.	.	bo	bo	.	.	.	.	.
=41	=41	=41	=41	=41	=41	=41	=41	=41
1r	N	_	_	.	91.818	.	voice	1r
.	.	bo	bo	.	.	.	.	.
.	.	_	_	.	.	.	.	.
.	.	_	_	.	.	.	.	.
.	.	_	_	.	.	.	.	.
.	.	.	.	.	.	.	.	.
.	.	.	.	.	.	.	.	.
.	.	.	.	.	.	.	.	.
=42	=42	=42	=42	=42	=42	=42	=42	=42
1V	F#:maj	.	.	.	94.155	.	voice	1F# 1a# 1cc#
=43	=43	=43	=43	=43	=43	=43	=43	=43
*>Letter>B	*>Letter>B	*>Letter>B	*>Letter>B	*>Letter>B	*>Letter>B	*>Letter>B	*>Letter>B	*>Letter>B
*>Label>Solo	*>Label>Solo	*>Label>Solo	*>Label>Solo	*>Label>Solo	*>Label>Solo	*>Label>Solo	*>Label>Solo	*>Label>Solo
1I	B:maj	.	.	.	96.491	newline	guitar	1B 1dd# 1ff#
=44	=44	=44	=44	=44	=44	=44	=44	=44
2IV	E:maj	.	.	.	98.832	.	guitar	1E 1g# 1b
2I	B:maj	.	.	.	100.002	.	guitar	2B 2dd# 2ff#
=45	=45	=45	=45	=45	=45	=45	=45	=45
2IV	E:maj	.	.	.	101.172	.	guitar	2E 2g# 2b
.	.	Pick	.	.	.	.	.	.
.	.	it	.	.	.	.	.	.
.	.	up,	.	.	.	.	.	.
.	.	pick	.	.	.	.	.	.
.	.	it	.	.	.	.	.	.
2I	B:maj	up	.	.	102.342	.	guitar	2B 2dd# 2ff#
.	.	.	.	.	.	.	.	.
.	.	.	.	.	.	.	.	.
=46	=46	=46	=46	=46	=46	=46	=46	=46
1V	F#:maj	.	.	.	103.512	.	guitar	1F# 1a# 1cc#
=47	=47	=47	=47	=47	=47	=47	=47	=47
2IV	E:maj	.	.	.	105.852	newline	guitar	1E 1g# 1b
2I	B:maj	.	.	.	107.013	.	guitar	2B 2dd# 2ff#
=48	=48	=48	=48	=48	=48	=48	=48	=48
2IV	E:maj	.	.	.	108.174	.	guitar	1E 1g# 1b
2I	B:maj	.	.	.	109.335	.	guitar	2B 2dd# 2ff#
=49	=49	=49	=49	=49	=49	=49	=49	=49
2IV	E:maj	.	.	.	110.495	.	guitar	2E 2g# 2b
.	.	Pick	.	.	.	.	.	.
.	.	it	.	.	.	.	.	.
.	.	up,	.	.	.	.	.	.
.	.	pick	.	.	.	.	.	.
.	.	it	.	.	.	.	.	.
2I	B:maj	up	.	.	111.656	.	guitar	2B 2dd# 2ff#
.	.	.	.	.	.	.	.	.
.	.	Ju-	.	.	.	.	.	.
.	.	-bi-	.	.	.	.	.	.
=50	=50	=50	=50	=50	=50	=50	=50	=50
1V	F#:maj	-la	la	.	112.817	.	guitar	1F# 1a# 1cc#
.	.	_	_	.	.	.	.	.
.	.	_	_	.	.	.	.	.
.	.	tion	tion	.	.	.	.	.
.	.	.	.	.	.	.	.	.
.	.	.	.	.	.	.	.	.
.	.	She	She	.	.	.	.	.
=51	=51	=51	=51	=51	=51	=51	=51	=51
*>Letter>B2	*>Letter>B2	*>Letter>B2	*>Letter>B2	*>Letter>B2	*>Letter>B2	*>Letter>B2	*>Letter>B2	*>Letter>B2
*>Label>Chorus	*>Label>Chorus	*>Label>Chorus	*>Label>Chorus	*>Label>Chorus	*>Label>Chorus	*>Label>Chorus	*>Label>Chorus	*>Label>Chorus
1I	B:maj	loves	loves	.	115.138	newline	voice	1B 1dd# 1ff#
.	.	me	me	.	.	.	.	.
.	.	a-	a-	.	.	.	.	.
.	.	-gain	-gain	.	.	.	.	.
.	.	_	_	.	.	.	.	.
.	.	.	.	.	.	.	.	.
.	.	I	I	.	.	.	.	.
=52	=52	=52	=52	=52	=52	=52	=52	=52
2IV	E:maj	fall	fall	.	117.451	.	voice	2E 2g# 2b
.	.	on	on	.	.	.	.	.
.	.	the	the	.	.	.	.	.
.	.	floor	floor	.	.	.	.	.
2I	B:maj	_	_	.	118.607	.	voice	2B 2dd# 2ff#
.	.	and	and	.	.	.	.	.
.	.	I'm	I'm	.	.	.	.	.
.	.	_	_	.	.	.	.	.
.	.	lau	lau	.	.	.	.	.
=53	=53	=53	=53	=53	=53	=53	=53	=53
2IV	E:maj	_	_	.	119.763	.	voice	2E 2g# 2b
.	.	ghing	ghing	.	.	.	.	.
.	.	_	_	.	.	.	.	.
.	.	_	_	.	.	.	.	.
2I	B:maj	_	_	.	120.919	.	voice	2B 2dd# 2ff#
.	.	.	.	.	.	.	.	.
.	.	Ju-	Ju-	.	.	.	.	.
.	.	-bi-	-bi-	.	.	.	.	.
=54	=54	=54	=54	=54	=54	=54	=54	=54
1V	F#:maj	-la	-la	.	122.075	.	voice	1F# 1a# 1cc#
.	.	_	_	.	.	.	.	.
.	.	_	_	.	.	.	.	.
.	.	tion	tion	.	.	.	.	.
.	.	.	.	.	.	.	.	.
.	.	.	.	.	.	.	.	.
.	.	She	She	.	.	.	.	.
=55	=55	=55	=55	=55	=55	=55	=55	=55
2IV	E:maj	loves	loves	.	124.388	newline	voice	2E 2g# 2b
.	.	me	me	.	.	.	.	.
.	.	a-	a-	.	.	.	.	.
.	.	-gain	-gain	.	.	.	.	.
2I	B:maj	_	_	.	125.54	.	voice	2B 2dd# 2ff#
.	.	.	.	.	.	.	.	.
.	.	I	I	.	.	.	.	.
=56	=56	=56	=56	=56	=56	=56	=56	=56
2IV	E:maj	fall	fall	.	126.693	.	voice	2E 2g# 2b
.	.	on	on	.	.	.	.	.
.	.	the	the	.	.	.	.	.
.	.	floor	floor	.	.	.	.	.
2I	B:maj	_	_	.	127.845	.	voice	2B 2dd# 2ff#
.	.	and	and	.	.	.	.	.
.	.	I'm	I'm	.	.	.	.	.
.	.	_	_	.	.	.	.	.
.	.	lau	lau	.	.	.	.	.
=57	=57	=57	=57	=57	=57	=57	=57	=57
2IV	E:maj	_	_	.	128.998	.	voice	2E 2g# 2b
.	.	ghing	ghing	.	.	.	.	.
.	.	_	_	.	.	.	.	.
.	.	_	_	.	.	.	.	.
2I	B:maj	_	_	.	130.151	.	voice	2B 2dd# 2ff#
.	.	.	.	.	.	.	.	.
.	.	Oh	Oh	.	.	.	.	.
.	.	_	_	.	.	.	.	.
=58	=58	=58	=58	=58	=58	=58	=58	=58
.	.	.	_	.	.	.	.	.
1V	F#:maj	_	_	.	131.303	.	voice	1F# 1a# 1cc#
.	.	_	.	.	.	.	.	.
.	.	_	_	.	.	.	.	.
.	.	ho	ho	.	.	.	.	.
.	.	.	.	.	.	.	.	.
.	.	.	.	.	.	.	.	.
.	.	Oh	Oh	.	.	.	.	.
=59	=59	=59	=59	=59	=59	=59	=59	=59
2IV	E:maj	_	_	.	133.609	newline	voice	2E 2g# 2b
.	.	_	_	.	.	.	.	.
.	.	_	_	.	.	.	.	.
.	.	ho	ho	.	.	.	.	.
2I	B:maj	_	_	.	134.759	.	voice	2B 2dd# 2ff#
.	.	.	.	.	.	.	.	.
.	.	Oh	Oh	.	.	.	.	.
=60	=60	=60	=60	=60	=60	=60	=60	=60
2IV	E:maj	_	_	.	135.909	.	voice	2E 2g# 2b
.	.	_	_	.	.	.	.	.
.	.	_	_	.	.	.	.	.
.	.	ho	ho	.	.	.	.	.
2I	B:maj	.	.	.	137.059	.	voice	2B 2dd# 2ff#
.	.	oh,	oh,	.	.	.	.	.
.	.	_	_	.	.	.	.	.
.	.	_	_	.	.	.	.	.
.	.	_	_	.	.	.	.	.
=61	=61	=61	=61	=61	=61	=61	=61	=61
2IV	E:maj	_	_	.	138.21	.	voice	2E 2g# 2b
.	.	oh	oh	.	.	.	.	.
.	.	_	_	.	.	.	.	.
.	.	_	_	.	.	.	.	.
2I	B:maj	_	_	.	139.36	.	voice	2B 2dd# 2ff#
.	.	.	.	.	.	.	.	.
.	.	Oh	Oh	.	.	.	.	.
.	.	_	_	.	.	.	.	.
=62	=62	=62	=62	=62	=62	=62	=62	=62
.	.	.	_	.	.	.	.	.
1V	F#:maj	_	_	.	140.51	.	voice	1F# 1a# 1cc#
.	.	_	.	.	.	.	.	.
.	.	_	_	.	.	.	.	.
.	.	ho	ho	.	.	.	.	.
.	.	.	.	.	.	.	.	.
.	.	.	.	.	.	.	.	.
.	.	Oh	Oh	.	.	.	.	.
=63	=63	=63	=63	=63	=63	=63	=63	=63
2IV	E:maj	_	_	.	142.81	newline	voice	2E 2g# 2b
.	.	_	_	.	.	.	.	.
.	.	_	_	.	.	.	.	.
.	.	ho	ho	.	.	.	.	.
2I	B:maj	_	_	.	143.962	.	voice	2B 2dd# 2ff#
.	.	.	.	.	.	.	.	.
.	.	Oh	Oh	.	.	.	.	.
=64	=64	=64	=64	=64	=64	=64	=64	=64
2IV	E:maj	_	_	.	145.113	.	voice	2E 2g# 2b
.	.	_	_	.	.	.	.	.
.	.	_	_	.	.	.	.	.
.	.	ho	ho	.	.	.	.	.
2I	B:maj	.	.	.	146.264	.	voice	2B 2dd# 2ff#
.	.	oh,	oh,	.	.	.	.	.
.	.	_	_	.	.	.	.	.
.	.	_	_	.	.	.	.	.
.	.	_	_	.	.	.	.	.
=65	=65	=65	=65	=65	=65	=65	=65	=65
2IV	E:maj	_	_	.	147.416	.	voice	2E 2g# 2b
.	.	oh	oh	.	.	.	.	.
.	.	_	_	.	.	.	.	.
.	.	_	_	.	.	.	.	.
2I	B:maj	_	_	.	148.567	.	voice	2B 2dd# 2ff#
.	.	.	.	.	.	.	.	.
.	.	Oh	Oh	.	.	.	.	.
.	.	_	_	.	.	.	.	.
=66	=66	=66	=66	=66	=66	=66	=66	=66
.	.	.	_	.	.	.	.	.
1V	F#:maj	_	_	.	149.719	.	voice	1F# 1a# 1cc#
.	.	_	.	.	.	.	.	.
.	.	_	_	.	.	.	.	.
.	.	ho	ho	.	.	.	.	.
.	.	.	.	.	.	.	.	.
.	.	.	.	.	.	.	.	.
.	.	Oh	Oh	.	.	.	.	.
=67	=67	=67	=67	=67	=67	=67	=67	=67
*>Label>>Fadeout	*>Label>>Fadeout	*>Label>>Fadeout	*>Label>>Fadeout	*>Label>>Fadeout	*>Label>>Fadeout	*>Label>>Fadeout	*>Label>>Fadeout	*>Label>>Fadeout
2IV	E:maj	_	_	.	152.021	newline	voice	2E 2g# 2b
.	.	_	_	.	.	.	.	.
.	.	_	_	.	.	.	.	.
.	.	ho	ho	.	.	.	.	.
2I	B:maj	_	_	.	153.166	.	voice	2B 2dd# 2ff#
.	.	.	.	.	.	.	.	.
.	.	Oh	Oh	.	.	.	.	.
=68	=68	=68	=68	=68	=68	=68	=68	=68
2IV	E:maj	_	_	.	154.311	.	voice	2E 2g# 2b
.	.	_	_	.	.	.	.	.
.	.	_	_	.	.	.	.	.
.	.	ho	ho	.	.	.	.	.
2I	B:maj	.	.	.	155.456	.	voice	2B 2dd# 2ff#
.	.	oh,	oh,	.	.	.	.	.
.	.	_	_	.	.	.	.	.
.	.	_	_	.	.	.	.	.
.	.	_	_	.	.	.	.	.
=69	=69	=69	=69	=69	=69	=69	=69	=69
2IV	E:maj	_	_	.	156.601	.	voice	2E 2g# 2b
.	.	oh	oh	.	.	.	.	.
.	.	_	_	.	.	.	.	.
.	.	_	_	.	.	.	.	.
2I	B:maj	_	_	.	157.745	.	voice	2B 2dd# 2ff#
.	.	.	.	.	.	.	.	.
.	.	Oh	Oh	.	.	.	.	.
.	.	_	_	.	.	.	.	.
=70	=70	=70	=70	=70	=70	=70	=70	=70
.	.	.	_	.	.	.	.	.
1V	F#:maj	_	_	.	158.89	.	voice	1F# 1a# 1cc#
.	.	_	.	.	.	.	.	.
.	.	_	_	.	.	.	.	.
.	.	ho	ho	.	.	.	.	.
.	.	.	.	.	.	.	.	.
.	.	.	.	.	.	.	.	.
.	.	Oh	Oh	.	.	.	.	.
=71	=71	=71	=71	=71	=71	=71	=71	=71
2IV	E:maj	_	_	.	161.18	newline	voice	2E 2g# 2b
.	.	_	_	.	.	.	.	.
.	.	_	_	.	.	.	.	.
.	.	ho	ho	.	.	.	.	.
2I	B:maj	_	_	.	162.328	.	voice	2B 2dd# 2ff#
.	.	.	.	.	.	.	.	.
.	.	Oh	Oh	.	.	.	.	.
=72	=72	=72	=72	=72	=72	=72	=72	=72
2IV	E:maj	_	_	.	163.475	.	voice	2E 2g# 2b
.	.	_	_	.	.	.	.	.
.	.	_	_	.	.	.	.	.
.	.	ho	ho	.	.	.	.	.
2I	B:maj	.	.	.	164.623	.	voice	2B 2dd# 2ff#
.	.	oh,	oh,	.	.	.	.	.
.	.	_	_	.	.	.	.	.
.	.	_	_	.	.	.	.	.
.	.	_	_	.	.	.	.	.
=73	=73	=73	=73	=73	=73	=73	=73	=73
2IV	E:maj	_	_	.	165.771	.	voice	2E 2g# 2b
.	.	oh	oh	.	.	.	.	.
.	.	_	_	.	.	.	.	.
.	.	_	_	.	.	.	.	.
2I	B:maj	_	_	.	166.918	.	voice	2B 2dd# 2ff#
.	.	.	.	.	.	.	.	.
.	.	Oh	Oh	.	.	.	.	.
.	.	_	_	.	.	.	.	.
=74	=74	=74	=74	=74	=74	=74	=74	=74
.	.	.	_	.	.	.	.	.
1V	F#:maj	_	_	.	168.066	.	voice	1F# 1a# 1cc#
.	.	_	.	.	.	.	.	.
.	.	_	_	.	.	.	.	.
.	.	ho	ho	.	.	.	.	.
.	.	.	.	.	.	.	.	.
.	.	.	.	.	.	.	.	.
.	.	Oh	Oh	.	.	.	.	.
=75	=75	=75	=75	=75	=75	=75	=75	=75
2IV	E:maj	_	_	.	170.361	newline	voice	2E 2g# 2b
.	.	_	_	.	.	.	.	.
.	.	_	_	.	.	.	.	.
.	.	ho	ho	.	.	.	.	.
2I	B:maj	_	_	.	170.837	.	voice	2B 2dd# 2ff#
.	.	.	.	.	.	.	.	.
.	.	Oh	Oh	.	.	.	.	.
=76	=76	=76	=76	=76	=76	=76	=76	=76
2IV	E:maj	.	.	.	171.313	.	voice	1E 1g# 1b
2I	B:maj	.	.	.	171.788	.	voice	2B 2dd# 2ff#
=77	=77	=77	=77	=77	=77	=77	=77	=77
2IV	E:maj	.	.	.	172.264	.	voice	1E 1g# 1b
2I	B:maj	.	.	.	172.74	.	voice	2B 2dd# 2ff#
=78	=78	=78	=78	=78	=78	=78	=78	=78
1V	F#:maj	.	.	.	173.216	.	voice	1F# 1a# 1cc#
1r;	N	.	.	.	174.167	.	r	1r;
1r;	N	.	.	.	176.777	.	r	1r;
*-	*-	*-	*-	*-	*-	*-	*-	*-
!!!BillboardChartDate: 1970/05/30
!!!BillboardPeak: 4
!!!BillboardWeeksOnChart: 13
!!!COC: Simon & Garfunkel
!!!ENC: Nathaniel Condit-Schultz
!!!EST: Awating manual error checking and editing.
!!!OTL: Cecilia
!!!RDF**harte: Chris Harte's syntax, used by MIREX
!!!RDF**harmony: **recip + pitch class of root + harmonic quality
!!!RDF**leadinstrument: original McGill primary instrumentation annotation
!!!RDF**phrase: newline = linebreak in original McGill transcription
!!!RDF**timestamp: McGill audio timestamp in seconds
!!!RDT: 2017/01/12/
!!!SampleActualRank: 4
!!!SampleID#: 0560
!!!SampleTargetRank: 4
!!!MBID: f2fbbc03-7dbd-4bca-8019-500b8d954eb6
